X:1
T:Title
%%score { ( 1 4 5 ) | ( 2 3 ) }
L:1/8
Q:1/4=100
M:4/4
K:Bb
V:1 treble nm="Grand Piano"
V:4 treble 
V:5 treble 
V:2 bass 
V:3 bass 
V:1
 .[B,DF]2 .[G,EG]2 [DF]2 [Fd]2 | [Gc][GB][FA][EG] [DF]4 | [DF]2 .[G,EG]2 [DF]2 [Fd]2 | %3
w: Mrs.~C.~H.~Morris * * *|||
 [=Ed][Ec][Ec][Ed] [_Ec]4 | [Fd]2 [Fd]2 [DB]2 [DF]2 | [EG][FA][GB][Gc] [^Fd]4 | %6
w: |||
 [Ge]2 [Gd]2 [Gc]2 G2 |[M:3/4] BA GA [DB]2 |[M:1/4] F>d |[M:4/4] c6 z2 | B6 z2 | G>^F GA B2 AB | %12
w: ||||||
[M:9/8] z2 d- d z z z3 |[M:4/4] [DB]2 [FA]>[EG] [DF]2 [B,D][CE] | [DF]2 [FB]>c d2 [Ge][Ge] | %15
w: |||
 d>d dB c2 BA | [DB]6 z2 |] %17
w: ||
V:2
 z F, z A, [B,,B,]2 [B,,B,]2 | [E,B,][E,E][E,E][E,B,] [B,,B,]4 | B,F, z A, [B,,B,]2 [B,,B,]2 | %3
 [C,G,][C,G,][C,G,][C,B,] [F,A,]4 | [B,,B,]2 [B,,B,]2 [B,,F,]2 [B,,B,]2 | %5
 [E,B,][E,B,][E,B,][E,G,] [D,A,]4 | [C,C]2 [D,=B,]2 [E,C]2 [=E,B,_D]2 | %7
[M:3/4] [F,B,E][F,CE] [F,A,E][F,E] [B,,F,]2 |[M:1/4][K:treble] D>F |[M:4/4] E6[K:bass] z2 | %10
 z2 G,>^F, =F,2 DC | B,>A, B,[K:treble]C D2 [F,EF][F,DF] | %12
[M:9/8] [F,A,F]2[K:bass] [F,B,F] [F,B,] [F,CF]2- [F,CF][F,B,F]>[F,A,E] | %13
[M:4/4] [B,,F,]2 [B,,G,]>[B,,A,] [B,,B,]2 [B,,F,][B,,F,] | %14
 [B,,B,]2 [D,B,]>[K:treble][F,A,F] [B,F]2[K:bass] [E,B,][E,B,] | %15
 [F,B,F]>[F,B,F] [F,B,F][F,DF] [F,EF]2 [F,DF][F,CE] | [B,,F,B,]6 z2 |] %17
V:3
 B,,2 B,,2 z4 | x8 | B,,2 B,,2 z4 | x8 | x8 | x8 | x8 |[M:3/4] x6 |[M:1/4][K:treble] x2 | %9
[M:4/4] z2[K:bass] F,>F, .F,2 [A,CE]>[F,A,E] | B,,6 z2 | x3[K:treble] x5 |[M:9/8] x2[K:bass] x7 | %13
[M:4/4] x8 | x7/2[K:treble] x5/2[K:bass] x2 | x8 | x8 |] %17
V:4
 x8 | x8 | x8 | x8 | x8 | x8 | x8 |[M:3/4] x6 |[M:1/4] x2 |[M:4/4] z2 A,>A, z G, F>c | %10
 [B,D]2 E>E D2 BA | x8 |[M:9/8] .c3 F e2- ed>c |[M:4/4] x8 | x8 | x8 | x8 |] %17
V:5
 x8 | x8 | x8 | x8 | x8 | x8 | x8 |[M:3/4] x6 |[M:1/4] x2 |[M:4/4] z4 A,2 z2 | x8 | x8 | %12
[M:9/8] x9 |[M:4/4] x8 | x8 | x8 | x8 |] %17

